festivallovers/public/icons/socialmedia_facebook.svg

<?xml version="1.0" encoding="UTF-8" standalone="no"?>
<svg width="12px" height="24px" viewBox="0 0 12 24" version="1.1" xmlns="http://www.w3.org/2000/svg" xmlns:xlink="http://www.w3.org/1999/xlink">
    <!-- Generator: Sketch 39.1 (31720) - http://www.bohemiancoding.com/sketch -->
    <title>socialmedia_facebook</title>
    <desc>Created with Sketch.</desc>
    <defs></defs>
    <g id="Icons" stroke="none" stroke-width="1" fill="none" fill-rule="evenodd">
        <g id="socialmedia_facebook" transform="translate(-18.000000, -12.000000)" fill="#000000">
            <g transform="translate(18.000000, 12.000000)" id="Shape">
                <path d="M7.46603822,7.85579618 L7.46603822,5.79001274 C7.46603822,5.47989809 7.48030573,5.23969427 7.50929936,5.07001274 C7.53819108,4.90007643 7.60392357,4.73294268 7.70593631,4.56794904 C7.80779618,4.40305732 7.97273885,4.28922293 8.20050955,4.22614013 C8.42858599,4.16295541 8.73166879,4.13146497 9.11006369,4.13146497 L11.1757452,4.13146497 L11.1757452,0 L7.8733758,0 C5.96254777,0 4.59016561,0.453350318 3.75602548,1.36005096 C2.92198726,2.26695541 2.50501911,3.60280255 2.50501911,5.36810191 L2.50501911,7.85574522 L0.0315414013,7.85574522 L0.0315414013,11.9875159 L2.50486624,11.9875159 L2.50486624,23.9750828 L7.46598726,23.9750828 L7.46598726,11.9875669 L10.7681529,11.9875669 L11.2046369,7.85579618 L7.46603822,7.85579618 L7.46603822,7.85579618 Z"></path>
            </g>
        </g>
    </g>
</svg>

<?xml version="1.0" encoding="utf-8"?>
<!-- Generator: Adobe Illustrator 22.1.0, SVG Export Plug-In . SVG Version: 6.00 Build 0)  -->
<svg version="1.1" id="Ebene_1" xmlns="http://www.w3.org/2000/svg" xmlns:xlink="http://www.w3.org/1999/xlink" x="0px" y="0px"
	 viewBox="0 0 12 24" style="enable-background:new 0 0 12 24;" xml:space="preserve">
<style type="text/css">
	.st0{fill:#767676;}
</style>
<title>socialmedia_facebook</title>
<desc>Created with Sketch.</desc>
<g id="Icons">
	<g id="socialmedia_facebook" transform="translate(-18.000000, -12.000000)">
		<g id="Shape" transform="translate(18.000000, 12.000000)">
			<path class="st0" d="M7.5,7.9V5.8c0-0.3,0-0.6,0-0.7c0-0.2,0.1-0.3,0.2-0.5C7.8,4.4,8,4.3,8.2,4.2c0.2-0.1,0.5-0.1,0.9-0.1h2.1V0
				H7.9C6,0,4.6,0.5,3.8,1.4c-0.8,0.9-1.3,2.2-1.3,4v2.5H0V12h2.5v12h5V12h3.3l0.4-4.1H7.5L7.5,7.9z"/>
		</g>
	</g>
</g>
</svg>
